src/assets/img/logos/client-logo-andesa.svg

<svg width="270" height="159" viewBox="0 0 270 159" xmlns="http://www.w3.org/2000/svg"><g id="Page-1" stroke="none" stroke-width="1" fill-rule="evenodd"><g id="client-logo-andesa" fill-rule="nonzero"><path d="m70.756 69.4 44-63.8c5.2-6.6 19.3-6 24.5.6l60.1 76.6c-12.2-7.5-26.8-12.9-42.8-15.8l-31.9-38.1c-5.5-6.6-14.5-6.6-19.9 0l-34 40.5Z" id="Path"/><path d="M.1 157.8 4.7 147c5.4-12.3 9.8-23 13.1-32.2.2 0 .5 0 .8.1.3 0 .6.1.9.1.3 0 .6.1.8.1.3 0 .8 0 1.2-.1.5-.1.8-.1 1.2-.2l.5 1c5.2 13.8 10.7 27.5 16.5 41.1l.3.7v.6c-.9 0-1.8-.1-2.6-.1-1.2-.1-2.1-.1-2.8-.1-1.7 0-3.5.1-5.2.3-1.8-5.8-3.2-10.1-4.4-12.9-1.2 0-2.3 0-3.5-.1-1.5-.1-2.8-.1-3.5-.1-1.6 0-4.1.1-7.6.2l-.3.9c-.7 2-1.4 4-2.2 6.1-.7 2-1.3 3.9-1.8 5.9-2-.3-3.9-.3-5.9 0v-.5H.1ZM12 141.5h11.5c-1.4-3.8-3.2-8.8-5.6-14.7-2.2 5.2-4.1 9.9-5.6 14.2l-.3.5Zm45.1 16.6c-.8-.1-1.6-.2-2.5-.2-.9 0-2 .1-2.9.3.5-4.5.7-9.2.9-14 .1-4.8.2-10.1.2-15.9v-10.2c0-1.3 0-2.3-.1-3 1.4.2 2.3.3 2.8.3.6 0 1.5-.1 2.9-.3 2.5 2.8 4.8 5.3 7 7.6 2.4 2.6 4.8 5.2 7.3 7.8 2.6 2.9 5 5.3 6.9 7.4 2.1 2.3 4.1 4.6 6.2 6.9v-21c0-1-.1-2.3-.2-3.9-.1-1.2-.1-2.4-.2-3.6l-.1-1.3c1.4.2 2.3.3 2.8.3s.9 0 1.5-.1c.5-.1.9-.1 1.4-.2-.1 1.6-.2 2.8-.2 3.6-.2 3.1-.5 5.8-.5 7.9 0 1.4 0 2.4-.1 3.2 0 .8-.1 1.8-.1 3 0 1-.1 2.2-.1 3.2v22.2c-.1-.1-.3-.1-.7-.1-.3-.1-1-.1-1.7-.1-1.2 0-2.1.1-2.6.2-7.7-9.1-14.6-16.8-20.6-23.1l-6.8-7.1c-.1 3.9-.2 6.7-.2 8.4v5.9c0 7.1.1 12.6.5 16.1l-.8-.2Zm56.9-42.8c.7 0 1.7 0 3.2-.1 1.5 0 2.5-.1 3.3-.1 3 0 5.3.1 6.9.2 3.7.3 6.6.9 8.8 1.7 2.4.9 4.4 2.4 5.9 4.1 3.5 3.8 5.2 8.6 5.2 14.4 0 3.6-.6 6.8-1.8 9.6-1.2 2.8-3.1 5.4-5.8 7.7-2.3 2.1-4.7 3.5-7.3 4.3-2.5.8-5.5 1.2-9 1.2-4.5 0-7.9 0-10.1-.1-.3-.1-.8-.1-1.5-.1-1.3 0-3.1.1-5.5.2.3-7.4.6-14.7.6-22v-6.4c0-1 0-2.5-.1-4.6-.1-1.5-.1-3.1-.1-4.6 0-.9-.1-1.8-.1-2.8 0-.9-.1-1.8-.1-2.8 3.1.1 5.8.2 7.5.2Zm6.7 39.2c3.1 0 5.6-.3 7.6-1.2 2-.8 3.7-2.3 5.3-4.5 2.3-3.5 3.5-7.9 3.5-13.4 0-2.3-.3-4.6-1-6.8-.7-2.3-1.7-4.1-3-5.6-1.5-1.7-3.2-2.9-5.1-3.5-1.9-.6-4.1-.9-6.9-.9-.5 0-1.3 0-2.2.1-1 .1-1.7.1-2.3.1-.2 7-.3 17.6-.3 31.6v4c.8.1 2.3.1 4.4.1Zm39.7-39.5c1.2 0 2.8.1 4.8.2 2.1.1 3.8.2 5.2.2 2.2 0 4.7 0 7.6-.1 2.9-.1 5.2-.1 6.7-.1-.1 1-.1 2.6-.1 4.7.1.2.1.5.1.8-6.1-.6-10.9-.8-14.4-.8-.1 1.5-.1 3.7-.1 6.6v7l14.4-.5c-.2 1.3-.3 2.3-.3 2.9 0 .6.1 1.4.3 2.4-4.1-.3-7.9-.5-11.3-.5h-3.1v16c3.9 0 8.8-.2 14.5-.8-.1 1-.1 2.5-.1 4.6.1.2.1.5.1.8-1.8 0-3.8-.1-5.6-.2-2.5-.1-4.4-.1-5.6-.1-.8 0-2.1 0-3.8.1-1.7.1-2.9.1-3.7.1-1.2 0-3 .1-5.6.2 0-.3.1-1 .1-1.8s.1-1.4.1-1.7c0-1.2.1-3.1.1-5.8.1-2.6.1-4.7.1-6v-16.9c0-1 0-2.8-.1-5-.1-1.6-.1-3.3-.2-5l-.1-1.3Zm56.6 8.6c-1.4-3.6-3.8-5.4-7.3-5.4-2.1 0-3.8.6-5.1 1.6-1.3 1.2-1.8 2.5-1.8 4.4 0 1.5.7 2.8 2 3.8s3.3 2.3 6.1 3.8 5 2.8 6.6 3.8c1.6 1.2 2.8 2.4 3.5 4.1.7 1.5 1 3.3 1 5.6 0 2-.5 3.9-1.4 5.9-1.3 2.6-3.5 4.6-6.7 6.1-2.3 1.2-5.2 1.6-8.5 1.6-3.9 0-7.4-.9-10.1-2.6.9-3.1 1.5-5.8 1.8-7.9h1.2c.5 2.1 1.5 3.8 3.1 5 1.6 1.2 3.5 1.7 5.6 1.7 2.1 0 3.8-.6 5.2-1.6 1.4-1.2 2.2-2.6 2.2-4.6 0-1.7-.8-3.5-2.3-4.8-2-1.4-4.4-2.8-7-4-.8-.5-1.7-.9-2.9-1.7-1.2-.7-1.8-1.2-2.2-1.4-1.4-.9-2.4-2.2-3.1-4-.7-1.7-1.2-3.6-1.2-5.5 0-4.1 1.6-7.4 4.7-9.9 1.5-1.2 2.9-2 4.4-2.4 1.5-.5 3.2-.7 5.4-.7 3.7 0 6.8.8 9.4 2.5 0 .1.2.2.5.5-.7 2.1-1.4 4.1-2 6.2l-1.1-.1Zm12.3 34.2 4.6-10.8c5.4-12.3 9.8-23 13.1-32.2.2 0 .5 0 .8.1.3 0 .6.1.9.1.3 0 .6.1.8.1.3 0 .7 0 1.2-.1s.8-.1 1.2-.2l.5 1c5.2 13.8 10.7 27.5 16.5 41.1l.3.7v.6c-.9 0-1.8-.1-2.6-.1-1.2-.1-2.1-.1-2.8-.1-1.7 0-3.5.1-5.2.3-1.8-5.8-3.2-10.1-4.4-12.9-1.2 0-2.3 0-3.5-.1-1.5-.1-2.8-.1-3.5-.1-1.6 0-4.1.1-7.6.2l-.3.9c-.7 2.1-1.5 4-2.2 6.1-.7 2-1.3 3.9-1.8 5.9-2-.3-3.9-.3-5.9 0v-.5h-.1Zm12.7-16.3h11.5c-1.4-3.8-3.2-8.8-5.6-14.7-2.2 5.2-5.9 14.7-5.9 14.7ZM68.6 80.3l38.5-48.8c5-3.3 11.3-2.5 15.5 2.5l4.4 5.3s-18.3 23.5-18.4 23.5c2.4-.1 4.3-.1 4.8-.1 15.8 0 23.5 1.6 30.9 3.5-4.3-.1-8.5-.6-12.8-.6-14.6 0-28.6 2.2-41.2 6-6.3 2-12.3 4.3-18 7-1.1.4-2.4 1-3.7 1.7" id="Shape"/><path d="M131.5 70.8c37.3 0 70 14.5 88.8 36.4-21.9-15.9-53.5-25.9-88.8-25.9s-66.9 10-88.8 25.9c18.8-21.9 51.5-36.4 88.8-36.4" id="Path"/></g></g></svg>

<?xml version="1.0" encoding="UTF-8"?>
<svg width="270px" height="159px" viewBox="0 0 270 159" version="1.1" xmlns="http://www.w3.org/2000/svg" xmlns:xlink="http://www.w3.org/1999/xlink">
    <!-- Generator: Sketch 61.2 (89653) - https://sketch.com -->
    <title>client-logo-andesa</title>
    <desc>Created with Sketch.</desc>
    <g id="Page-1" stroke="none" stroke-width="1" fill="none" fill-rule="evenodd">
        <g id="client-logo-andesa" fill="#14283A" fill-rule="nonzero">
            <path d="M70.756,69.4 L114.756,5.6 C119.956,-1 134.056,-0.4 139.256,6.2 L199.356,82.8 C187.156,75.3 172.556,69.9 156.556,67 L124.656,28.9 C119.156,22.3 110.156,22.3 104.756,28.9 L70.756,69.4 L70.756,69.4 Z" id="Path"></path>
            <path d="M0.1,157.8 L4.7,147 C10.1,134.7 14.5,124 17.8,114.8 C18,114.8 18.3,114.8 18.6,114.9 C18.9,114.9 19.2,115 19.5,115 C19.8,115 20.1,115.1 20.3,115.1 C20.6,115.1 21.1,115.1 21.5,115 C22,114.9 22.3,114.9 22.7,114.8 L23.2,115.8 C28.4,129.6 33.9,143.3 39.7,156.9 L40,157.6 L40,158.2 C39.1,158.2 38.2,158.1 37.4,158.1 C36.2,158 35.3,158 34.6,158 C32.9,158 31.1,158.1 29.4,158.3 C27.6,152.5 26.2,148.2 25,145.4 C23.8,145.4 22.7,145.4 21.5,145.3 C20,145.2 18.7,145.2 18,145.2 C16.4,145.2 13.9,145.3 10.4,145.4 L10.1,146.3 C9.4,148.3 8.7,150.3 7.9,152.4 C7.2,154.4 6.6,156.3 6.1,158.3 C4.1,158 2.2,158 0.2,158.3 L0.2,157.8 L0.1,157.8 Z M12,141.5 L23.5,141.5 C22.1,137.7 20.3,132.7 17.9,126.8 C15.7,132 13.8,136.7 12.3,141 L12,141.5 Z M57.1,158.1 C56.3,158 55.5,157.9 54.6,157.9 C53.7,157.9 52.6,158 51.7,158.2 C52.2,153.7 52.4,149 52.6,144.2 C52.7,139.4 52.8,134.1 52.8,128.3 L52.8,118.1 C52.8,116.8 52.8,115.8 52.7,115.1 C54.1,115.3 55,115.4 55.5,115.4 C56.1,115.4 57,115.3 58.4,115.1 C60.9,117.9 63.2,120.4 65.4,122.7 C67.8,125.3 70.2,127.9 72.7,130.5 C75.3,133.4 77.7,135.8 79.6,137.9 C81.7,140.2 83.7,142.5 85.8,144.8 L85.8,123.8 C85.8,122.8 85.7,121.5 85.6,119.9 C85.5,118.7 85.5,117.5 85.4,116.3 L85.3,115 C86.7,115.2 87.6,115.3 88.1,115.3 C88.6,115.3 89,115.3 89.6,115.2 C90.1,115.1 90.5,115.1 91,115 C90.9,116.6 90.8,117.8 90.8,118.6 C90.6,121.7 90.3,124.4 90.3,126.5 C90.3,127.9 90.3,128.9 90.2,129.7 C90.2,130.5 90.1,131.5 90.1,132.7 C90.1,133.7 90,134.9 90,135.9 L90,158.1 C89.9,158 89.7,158 89.3,158 C89,157.9 88.3,157.9 87.6,157.9 C86.4,157.9 85.5,158 85,158.1 C77.3,149 70.4,141.3 64.4,135 L57.6,127.9 C57.5,131.8 57.4,134.6 57.4,136.3 L57.4,142.2 C57.4,149.3 57.5,154.8 57.9,158.3 L57.1,158.1 L57.1,158.1 Z M114,115.3 C114.7,115.3 115.7,115.3 117.2,115.2 C118.7,115.2 119.7,115.1 120.5,115.1 C123.5,115.1 125.8,115.2 127.4,115.3 C131.1,115.6 134,116.2 136.2,117 C138.6,117.9 140.6,119.4 142.1,121.1 C145.6,124.9 147.3,129.7 147.3,135.5 C147.3,139.1 146.7,142.3 145.5,145.1 C144.3,147.9 142.4,150.5 139.7,152.8 C137.4,154.9 135,156.3 132.4,157.1 C129.9,157.9 126.9,158.3 123.4,158.3 C118.9,158.3 115.5,158.3 113.3,158.2 C113,158.1 112.5,158.1 111.8,158.1 C110.5,158.1 108.7,158.2 106.3,158.3 C106.6,150.9 106.9,143.6 106.9,136.3 L106.9,129.9 C106.9,128.9 106.9,127.4 106.8,125.3 C106.7,123.8 106.7,122.2 106.7,120.7 C106.7,119.8 106.6,118.9 106.6,117.9 C106.6,117 106.5,116.1 106.5,115.1 C109.6,115.2 112.3,115.3 114,115.3 L114,115.3 Z M120.7,154.5 C123.8,154.5 126.3,154.2 128.3,153.3 C130.3,152.5 132,151 133.6,148.8 C135.9,145.3 137.1,140.9 137.1,135.4 C137.1,133.1 136.8,130.8 136.1,128.6 C135.4,126.3 134.4,124.5 133.1,123 C131.6,121.3 129.9,120.1 128,119.5 C126.1,118.9 123.9,118.6 121.1,118.6 C120.6,118.6 119.8,118.6 118.9,118.7 C117.9,118.8 117.2,118.8 116.6,118.8 C116.4,125.8 116.3,136.4 116.3,150.4 L116.3,154.4 C117.1,154.5 118.6,154.5 120.7,154.5 L120.7,154.5 Z M160.4,115 C161.6,115 163.2,115.1 165.2,115.2 C167.3,115.3 169,115.4 170.4,115.4 C172.6,115.4 175.1,115.4 178,115.3 C180.9,115.2 183.2,115.2 184.7,115.2 C184.6,116.2 184.6,117.8 184.6,119.9 C184.7,120.1 184.7,120.4 184.7,120.7 C178.6,120.1 173.8,119.9 170.3,119.9 C170.2,121.4 170.2,123.6 170.2,126.5 L170.2,133.5 L184.6,133 C184.4,134.3 184.3,135.3 184.3,135.9 C184.3,136.5 184.4,137.3 184.6,138.3 C180.5,138 176.7,137.8 173.3,137.8 L170.2,137.8 L170.2,153.8 C174.1,153.8 179,153.6 184.7,153 C184.6,154 184.6,155.5 184.6,157.6 C184.7,157.8 184.7,158.1 184.7,158.4 C182.9,158.4 180.9,158.3 179.1,158.2 C176.6,158.1 174.7,158.1 173.5,158.1 C172.7,158.1 171.4,158.1 169.7,158.2 C168,158.3 166.8,158.3 166,158.3 C164.8,158.3 163,158.4 160.4,158.5 C160.4,158.2 160.5,157.5 160.5,156.7 C160.5,155.9 160.6,155.3 160.6,155 C160.6,153.8 160.7,151.9 160.7,149.2 C160.8,146.6 160.8,144.5 160.8,143.2 L160.8,126.3 C160.8,125.3 160.8,123.5 160.7,121.3 C160.6,119.7 160.6,118 160.5,116.3 L160.4,115 L160.4,115 Z M217,123.6 C215.6,120 213.2,118.2 209.7,118.2 C207.6,118.2 205.9,118.8 204.6,119.8 C203.3,121 202.8,122.3 202.8,124.2 C202.8,125.7 203.5,127 204.8,128 C206.1,129 208.1,130.3 210.9,131.8 C213.7,133.3 215.9,134.6 217.5,135.6 C219.1,136.8 220.3,138 221,139.7 C221.7,141.2 222,143 222,145.3 C222,147.3 221.5,149.2 220.6,151.2 C219.3,153.8 217.1,155.8 213.9,157.3 C211.6,158.5 208.7,158.9 205.4,158.9 C201.5,158.9 198,158 195.3,156.3 C196.2,153.2 196.8,150.5 197.1,148.4 L198.3,148.4 C198.8,150.5 199.8,152.2 201.4,153.4 C203,154.6 204.9,155.1 207,155.1 C209.1,155.1 210.8,154.5 212.2,153.5 C213.6,152.3 214.4,150.9 214.4,148.9 C214.4,147.2 213.6,145.4 212.1,144.1 C210.1,142.7 207.7,141.3 205.1,140.1 C204.3,139.6 203.4,139.2 202.2,138.4 C201,137.7 200.4,137.2 200,137 C198.6,136.1 197.6,134.8 196.9,133 C196.2,131.3 195.7,129.4 195.7,127.5 C195.7,123.4 197.3,120.1 200.4,117.6 C201.9,116.4 203.3,115.6 204.8,115.2 C206.3,114.7 208,114.5 210.2,114.5 C213.9,114.5 217,115.3 219.6,117 C219.6,117.1 219.8,117.2 220.1,117.5 C219.4,119.6 218.7,121.6 218.1,123.7 L217,123.6 L217,123.6 Z M229.3,157.8 L233.9,147 C239.3,134.7 243.7,124 247,114.8 C247.2,114.8 247.5,114.8 247.8,114.9 C248.1,114.9 248.4,115 248.7,115 C249,115 249.3,115.1 249.5,115.1 C249.8,115.1 250.2,115.1 250.7,115 C251.2,114.9 251.5,114.9 251.9,114.8 L252.4,115.8 C257.6,129.6 263.1,143.3 268.9,156.9 L269.2,157.6 L269.2,158.2 C268.3,158.2 267.4,158.1 266.6,158.1 C265.4,158 264.5,158 263.8,158 C262.1,158 260.3,158.1 258.6,158.3 C256.8,152.5 255.4,148.2 254.2,145.4 C253,145.4 251.9,145.4 250.7,145.3 C249.2,145.2 247.9,145.2 247.2,145.2 C245.6,145.2 243.1,145.3 239.6,145.4 L239.3,146.3 C238.6,148.4 237.8,150.3 237.1,152.4 C236.4,154.4 235.8,156.3 235.3,158.3 C233.3,158 231.4,158 229.4,158.3 L229.4,157.8 L229.3,157.8 Z M242,141.5 L253.5,141.5 C252.1,137.7 250.3,132.7 247.9,126.8 C245.7,132 242,141.5 242,141.5 Z M68.6,80.3 L107.1,31.5 C112.1,28.2 118.4,29 122.6,34 L127,39.3 C127,39.3 108.7,62.8 108.6,62.8 C111,62.7 112.9,62.7 113.4,62.7 C129.2,62.7 136.9,64.3 144.3,66.2 C140,66.1 135.8,65.6 131.5,65.6 C116.9,65.6 102.9,67.8 90.3,71.6 C84,73.6 78,75.9 72.3,78.6 C71.2,79 69.9,79.6 68.6,80.3" id="Shape"></path>
            <path d="M131.5,70.8 C168.8,70.8 201.5,85.3 220.3,107.2 C198.4,91.3 166.8,81.3 131.5,81.3 C96.2,81.3 64.6,91.3 42.7,107.2 C61.5,85.3 94.2,70.8 131.5,70.8" id="Path"></path>
        </g>
    </g>
</svg>
